icons/center.svg

<svg fill="none" height="28" viewBox="0 0 28 28" width="28" xmlns="http://www.w3.org/2000/svg"><g clip-rule="evenodd" fill="#fff" fill-rule="evenodd" opacity=".9"><path d="m6.16776 15.1406c.81091-.0803 1.69632-.001 2.30762.1436.43911.104.7116.5442.6084.9834-.10411.4396-.5448.7124-.98438.6084-.44193-.1047-1.14619-.1693-1.77051-.1074-.31056.0308-.56052.0897-.73437.164-.0751.0322-.12162.0635-.15039.085.00071.0048.00118.01.00195.0156.00442.0319.01052.0762.02539.1309.05824.2135.17689.5047.36231.8613.26969.5186.64867 1.1162 1.0791 1.7236.98989-.8227 1.94964-1.6366 3.07226-2.6738.14016-.1295.33546-.2736.58396-.3418.2827-.0775.5911-.0429.8555.1289.2313.1508.3623.3641.4365.5215.0774.1645.1263.3414.1592.5049.1267.6301.1039 1.5342.0146 2.4023-.0914.8888-.2621 1.8411-.4814 2.6055-.1086.3785-.2389.7419-.3906 1.0361-.0757.1467-.1694.3026-.2871.4385-.1115.1286-.2962.3-.5635.3818-.2881.0879-.55425.0361-.72462-.0185-.18025-.0579-.34958-.1493-.49805-.2422-.29834-.1868-.6201-.4541-.93847-.7549-.47379-.4477-.9962-1.0204-1.50488-1.6396-.60311.5008-1.23395 1.0274-1.91797 1.6171-.34204.2943-.85842.2557-1.15332-.0859-.29469-.3421-.25595-.8583.08593-1.1533.72672-.6266 1.37809-1.1697 1.99024-1.6777-.49182-.6863-.9387-1.3872-1.2666-2.0176-.2121-.4079-.39088-.8154-.49219-1.1875-.08902-.3275-.17451-.8209.04199-1.2627.22883-.4658.6404-.7403 1.0166-.9014.38104-.1629.81055-.2478 1.2168-.2881zm4.30174 3.7051c-.89849.8085-1.72336 1.5094-2.56248 2.207.47566.5794.95182 1.1016 1.36719 1.4942.19851.1875.37524.3312.51855.4385.05834-.144.12546-.324.1875-.5401.18744-.6533.34304-1.5082.42674-2.3223.0497-.4833.0685-.9214.0625-1.2773z"/><path d="m21.5096 14.6992c.3583.012.7198.0506 1.0273.1397.154.0447.3276.1111.4873.2158.1601.105.3481.2795.4522.5469l.0576.1992c.035.1957.0154.3764-.0059.4961-.0321.1798-.0942.3628-.1621.5351-.137.3476-.3466.7498-.5937 1.168-.3442.5821-.7871 1.2392-1.2725 1.8965.8566.7102 1.7382 1.4755 2.6738 2.4111.3191.3193.3188.8368 0 1.1563-.3195.3194-.8377.3194-1.1572 0-.8747-.8746-1.7016-1.5945-2.5264-2.2793-.642.7731-1.3116 1.4981-1.915 2.0175-.3489.3003-.7209.5712-1.0791.7315-.2878.1287-.8552.307-1.3535-.0381l-.0987-.0752-.1806-.1719c-.4032-.4241-.6747-1.0005-.836-1.5566-.1882-.6495-.2588-1.3874-.1513-2.0596.0713-.4459.4905-.7498.9365-.6787.4454.0717.7495.49.6787.9356-.0634.3963-.0243.8899.1084 1.3476.0928.3201.2191.5702.3418.7442.1397-.0812.3295-.2168.5645-.419.5099-.439 1.1149-1.0874 1.7207-1.8164-.853-.6944-1.7334-1.4139-2.6573-2.2764-.3147-.2938-.5793-.7593-.4199-1.3125.1306-.4518.4937-.7355.7559-.8994.5588-.349 1.3892-.5912 2.1797-.7431.8125-.1562 1.6979-.2391 2.4248-.2149zm-.0557 1.6338c-.5815-.0193-1.3414.0495-2.0596.1875-.5944.1143-1.089.268-1.414.418.7694.7014 1.5069 1.3104 2.2529 1.9179.4371-.5957.8305-1.1795 1.1308-1.6875.188-.3179.328-.5936.4239-.8105-.0952-.0108-.2068-.0212-.334-.0254z"/><path d="m12.9715 3.37012c.4514.0005.8174.36686.8174.81836 0 1.05494.0164 1.96674.039 2.82519.8691-.01308 1.7209.01754 2.4365.11133.4619.06056.905.15129 1.2705.28906.2776.10467.6791.29785.9151.67285l.0898.17286.0733.2207c.0525.21911.0492.43365.0283.61621-.0286.24981-.0978.50204-.1846.73828-.1738.47294-.4494.97884-.747 1.44724-.5793.9117-1.3654 1.8638-1.9297 2.2725-.3659.2648-.8777.1822-1.1426-.1836-.2645-.3659-.183-.8777.1826-1.1426.3124-.2264.9668-.9687 1.5098-1.8232.2634-.41467.4712-.81118.5898-1.13382.0464-.12617.07-.22784.084-.30371-.0141-.00592-.0285-.01583-.0459-.02246-.1979-.07461-.5016-.1442-.9063-.19726-.6107-.08002-1.3698-.11175-2.1728-.10059.0435 1.14469.0972 2.30094.1455 3.70704.0139.4033-.1115.9685-.6807 1.2275-.4419.2011-.9062.0801-1.1806-.0166-.6134-.2162-1.3388-.7103-1.9795-1.2334-.65797-.5372-1.3139-1.1766-1.78712-1.7607-.23368-.2885-.4471-.59207-.58887-.88282-.0709-.14554-.13746-.31788-.1709-.50098-.03263-.17927-.04424-.43328.07031-.69336l.10156-.18066c.11298-.16262.2535-.27392.3584-.34473.15262-.10294.32576-.18382.49219-.24902.33441-.13094.75087-.23918 1.19824-.32813.67809-.13477 1.49279-.23944 2.33689-.30469-.0234-.88128-.041-1.81786-.041-2.89843 0-.45181.3666-.81836.8184-.81836zm-.7276 5.35449c-.7638.06142-1.4839.15551-2.0674.27148-.31392.06242-.57049.13223-.76655.19629.06665.1004.15102.21798.25683.34864.38922.48038.96182 1.04268 1.55172 1.52438.431.3519.8319.6247 1.1475.7969-.0421-1.1437-.0842-2.14156-.1221-3.13769z"/></g></svg>

<svg width="28" height="28" viewBox="0 0 28 28" fill="none" xmlns="http://www.w3.org/2000/svg">
<g opacity="0.9">
<path fill-rule="evenodd" clip-rule="evenodd" d="M6.16776 15.1406C6.97867 15.0603 7.86408 15.1396 8.47538 15.2842C8.91449 15.3882 9.18698 15.8284 9.08378 16.2676C8.97967 16.7072 8.53898 16.98 8.0994 16.876C7.65747 16.7713 6.95321 16.7067 6.32889 16.7686C6.01833 16.7994 5.76837 16.8583 5.59452 16.9326C5.51942 16.9648 5.4729 16.9961 5.44413 17.0176C5.44484 17.0224 5.44531 17.0276 5.44608 17.0332C5.4505 17.0651 5.4566 17.1094 5.47147 17.1641C5.52971 17.3776 5.64836 17.6688 5.83378 18.0254C6.10347 18.544 6.48245 19.1416 6.91288 19.749C7.90277 18.9263 8.86252 18.1124 9.98514 17.0752C10.1253 16.9457 10.3206 16.8016 10.5691 16.7334C10.8518 16.6559 11.1602 16.6905 11.4246 16.8623C11.6559 17.0131 11.7869 17.2264 11.8611 17.3838C11.9385 17.5483 11.9874 17.7252 12.0203 17.8887C12.147 18.5188 12.1242 19.4229 12.0349 20.291C11.9435 21.1798 11.7728 22.1321 11.5535 22.8965C11.4449 23.275 11.3146 23.6384 11.1629 23.9326C11.0872 24.0793 10.9935 24.2352 10.8758 24.3711C10.7643 24.4997 10.5796 24.6711 10.3123 24.7529C10.0242 24.8408 9.75805 24.789 9.58768 24.7344C9.40743 24.6765 9.2381 24.5851 9.08963 24.4922C8.79129 24.3054 8.46953 24.0381 8.15116 23.7373C7.67737 23.2896 7.15496 22.7169 6.64628 22.0977C6.04317 22.5985 5.41233 23.1251 4.72831 23.7148C4.38627 24.0091 3.86989 23.9705 3.57499 23.6289C3.2803 23.2868 3.31904 22.7706 3.66092 22.4756C4.38764 21.849 5.03901 21.3059 5.65116 20.7979C5.15934 20.1116 4.71246 19.4107 4.38456 18.7803C4.17246 18.3724 3.99368 17.9649 3.89237 17.5928C3.80335 17.2653 3.71786 16.7719 3.93436 16.3301C4.16319 15.8643 4.57476 15.5898 4.95096 15.4287C5.332 15.2658 5.76151 15.1809 6.16776 15.1406ZM10.4695 18.8457C9.57101 19.6542 8.74614 20.3551 7.90702 21.0527C8.38268 21.6321 8.85884 22.1543 9.27421 22.5469C9.47272 22.7344 9.64945 22.8781 9.79276 22.9854C9.8511 22.8414 9.91822 22.6614 9.98026 22.4453C10.1677 21.792 10.3233 20.9371 10.407 20.123C10.4567 19.6397 10.4755 19.2016 10.4695 18.8457Z" fill="white"/>
<path fill-rule="evenodd" clip-rule="evenodd" d="M21.5096 14.6992C21.8679 14.7112 22.2294 14.7498 22.5369 14.8389C22.6909 14.8836 22.8645 14.95 23.0242 15.0547C23.1843 15.1597 23.3723 15.3342 23.4764 15.6016L23.534 15.8008C23.569 15.9965 23.5494 16.1772 23.5281 16.2969C23.496 16.4767 23.4339 16.6597 23.366 16.832C23.229 17.1796 23.0194 17.5818 22.7723 18C22.4281 18.5821 21.9852 19.2392 21.4998 19.8965C22.3564 20.6067 23.238 21.372 24.1736 22.3076C24.4927 22.6269 24.4924 23.1444 24.1736 23.4639C23.8541 23.7833 23.3359 23.7833 23.0164 23.4639C22.1417 22.5893 21.3148 21.8694 20.49 21.1846C19.848 21.9577 19.1784 22.6827 18.575 23.2021C18.2261 23.5024 17.8541 23.7733 17.4959 23.9336C17.2081 24.0623 16.6407 24.2406 16.1424 23.8955L16.0437 23.8203L15.8631 23.6484C15.4599 23.2243 15.1884 22.6479 15.0271 22.0918C14.8389 21.4423 14.7683 20.7044 14.8758 20.0322C14.9471 19.5863 15.3663 19.2824 15.8123 19.3535C16.2577 19.4252 16.5618 19.8435 16.491 20.2891C16.4276 20.6854 16.4667 21.179 16.5994 21.6367C16.6922 21.9568 16.8185 22.2069 16.9412 22.3809C17.0809 22.2997 17.2707 22.1641 17.5057 21.9619C18.0156 21.5229 18.6206 20.8745 19.2264 20.1455C18.3734 19.4511 17.493 18.7316 16.5691 17.8691C16.2544 17.5753 15.9898 17.1098 16.1492 16.5566C16.2798 16.1048 16.6429 15.8211 16.9051 15.6572C17.4639 15.3082 18.2943 15.066 19.0848 14.9141C19.8973 14.7579 20.7827 14.675 21.5096 14.6992ZM21.4539 16.333C20.8724 16.3137 20.1125 16.3825 19.3943 16.5205C18.7999 16.6348 18.3053 16.7885 17.9803 16.9385C18.7497 17.6399 19.4872 18.2489 20.2332 18.8564C20.6703 18.2607 21.0637 17.6769 21.364 17.1689C21.552 16.851 21.692 16.5753 21.7879 16.3584C21.6927 16.3476 21.5811 16.3372 21.4539 16.333Z" fill="white"/>
<path fill-rule="evenodd" clip-rule="evenodd" d="M12.9715 3.37012C13.4229 3.37062 13.7889 3.73698 13.7889 4.18848C13.7889 5.24342 13.8053 6.15522 13.8279 7.01367C14.697 7.00059 15.5488 7.03121 16.2644 7.125C16.7263 7.18556 17.1694 7.27629 17.5349 7.41406C17.8125 7.51873 18.214 7.71191 18.45 8.08691L18.5398 8.25977L18.6131 8.48047C18.6656 8.69958 18.6623 8.91412 18.6414 9.09668C18.6128 9.34649 18.5436 9.59872 18.4568 9.83496C18.283 10.3079 18.0074 10.8138 17.7098 11.2822C17.1305 12.1939 16.3444 13.146 15.7801 13.5547C15.4142 13.8195 14.9024 13.7369 14.6375 13.3711C14.373 13.0052 14.4545 12.4934 14.8201 12.2285C15.1325 12.0021 15.7869 11.2598 16.3299 10.4053C16.5933 9.99063 16.8011 9.59412 16.9197 9.27148C16.9661 9.14531 16.9897 9.04364 17.0037 8.96777C16.9896 8.96185 16.9752 8.95194 16.9578 8.94531C16.7599 8.8707 16.4562 8.80111 16.0515 8.74805C15.4408 8.66803 14.6817 8.6363 13.8787 8.64746C13.9222 9.79215 13.9759 10.9484 14.0242 12.3545C14.0381 12.7578 13.9127 13.323 13.3435 13.582C12.9016 13.7831 12.4373 13.6621 12.1629 13.5654C11.5495 13.3492 10.8241 12.8551 10.1834 12.332C9.52543 11.7948 8.8695 11.1554 8.39628 10.5713C8.1626 10.2828 7.94918 9.97923 7.80741 9.68848C7.73651 9.54294 7.66995 9.3706 7.63651 9.1875C7.60388 9.00823 7.59227 8.75422 7.70682 8.49414L7.80838 8.31348C7.92136 8.15086 8.06188 8.03956 8.16678 7.96875C8.3194 7.86581 8.49254 7.78493 8.65897 7.71973C8.99338 7.58879 9.40984 7.48055 9.85721 7.3916C10.5353 7.25683 11.35 7.15216 12.1941 7.08691C12.1707 6.20563 12.1531 5.26905 12.1531 4.18848C12.1531 3.73667 12.5197 3.37012 12.9715 3.37012ZM12.2439 8.72461C11.4801 8.78603 10.76 8.88012 10.1765 8.99609C9.86258 9.05851 9.60601 9.12832 9.40995 9.19238C9.4766 9.29278 9.56097 9.41036 9.66678 9.54102C10.056 10.0214 10.6286 10.5837 11.2185 11.0654C11.6495 11.4173 12.0504 11.6901 12.366 11.8623C12.3239 10.7186 12.2818 9.72074 12.2439 8.72461Z" fill="white"/>
</g>
</svg>
